X:16
T:There’s nae luck about the house. ET.16
M:C|
L:1/8
Q:1/4=120
S:Eliza Tennyson MS, Lincolnshire,1822
R:jig
O:England;Lincolnshire;Somersby
Z:vmp.R.Greig 2011 <http://www.village-music-project.org.uk>
K:G
[V:1]|:G>A|B>BB>G c>cc>A|B>BB>GA2G>A|B>BB>A c>def|d>cB>AG2||
[V:2]|:z2|G,,2[D,2G,2]G,,2[F,2D,2]|G,,2 [G,2D,2]F,,2[D,2F,,2]|G,,2[D,2G,2][G,2C,2][G,2C,2]|D,2[C2F,2]G,2||
[V:1]d>d|g>ed>B c>de>f|g<ed>BA3d|g<ed<B “x”c>de>g|{e/}d>cB>AG2:|]
[V:2]z2|[C,2G,2][G,2B,,2][G,2C,2][G,2C,2]|[G,2C,2][G,2B,,2]D,2G,,2|[C,2G,2][G,2B,,2][G,4C,4]|D,2[D2F,2][G,2G,,2]:|]

